assets/images/script/t-5-e1.svg

<svg fill="none" height="154" viewBox="0 0 468 154" width="468" xmlns="http://www.w3.org/2000/svg"><g stroke="#000" stroke-linecap="round" stroke-width="5"><path d="m77.1268 138.334c9.7754 3.182 18.5532 8.323 28.7692 10.333 20.613 4.055 40.329 1.833 59.248-7.137 15.359-7.282 25.723-14.774 28.546-32.088 2.233-13.6937-3.165-23.9349-15.983-29.3636-19.228-8.1437-43.55-6.1399-63.634-3.2709-23.8141 3.4021-47.364 10.2439-70.6217 16.2803-12.6548 3.2844-25.0037 7.0952-37.3925 11.2252-7.018216 2.339 2.12326-2.102 3.41959-2.751 41.21321-20.6062 83.78001-38.2687 123.84861-61.1805 17.831-10.1959 33.943-22.9691 51.591-33.30384 6.106-3.57565 13.749-6.486557 20.518-2.82487 15.143 8.19231 21.865 28.36811 28.546 42.96791 11.628 25.4099 22.438 51.115 37.467 74.7853 7.384 11.63 6.983 17.028 19.884 23.831 5.024 2.649 1.528-3.06.595-4.46"/><path d="m289.251 90.1188c0-4.3556 7.696 8.7331 8.624 10.5562 4.857 9.542 7.719 20.353 13.827 29.215 9.42 13.669 26.356 16.975 41.927 17.47 33.196 1.054 66.481-3.345 99.763-2.305.809.025 14.927.714 11.151 2.602"/></g></svg>

<svg width="468" height="154" viewBox="0 0 468 154" fill="none" xmlns="http://www.w3.org/2000/svg">
<path d="M77.1268 138.334C86.9022 141.516 95.68 146.657 105.896 148.667C126.509 152.722 146.225 150.5 165.144 141.53C180.503 134.248 190.867 126.756 193.69 109.442C195.923 95.7483 190.525 85.5071 177.707 80.0784C158.479 71.9347 134.157 73.9385 114.073 76.8075C90.2589 80.2096 66.709 87.0514 43.4513 93.0878C30.7965 96.3722 18.4476 100.183 6.0588 104.313C-0.959416 106.652 8.18206 102.211 9.47839 101.562C50.6916 80.9558 93.2584 63.2933 133.327 40.3815C151.158 30.1856 167.27 17.4124 184.918 7.07766C191.024 3.50201 198.667 0.591103 205.436 4.25279C220.579 12.4451 227.301 32.6209 233.982 47.2207C245.61 72.6306 256.42 98.3357 271.449 122.006C278.833 133.636 278.432 139.034 291.333 145.837C296.357 148.486 292.861 142.777 291.928 141.377" stroke="black" stroke-width="5" stroke-linecap="round"/>
<path d="M289.251 90.1188C289.251 85.7632 296.947 98.8519 297.875 100.675C302.732 110.217 305.594 121.028 311.702 129.89C321.122 143.559 338.058 146.865 353.629 147.36C386.825 148.414 420.11 144.015 453.392 145.055C454.201 145.08 468.319 145.769 464.543 147.657" stroke="black" stroke-width="5" stroke-linecap="round"/>
</svg>
